src/categories-icons-sprite/categories/svg-cat-electr-mobile.svg

<svg width="30" height="24" viewBox="0 0 30 24" fill="none" xmlns="http://www.w3.org/2000/svg">
<path class="p-515BE0" d="M13.7227 4.1001H12.001V7.7608H13.7227V4.1001Z" fill="#65B3E7"/>
<path class="p-00347B" d="M17.3828 4.1001H15.6611V7.7608H17.3828V4.1001Z" fill="#65B3E7"/>
<path class="p-515BE0" d="M29.3837 18.23C29.3837 13.6729 27.1789 9.49166 23.6172 6.89898L14.6917 6.89893L13.543 15.4584L14.6917 24H29.3837V18.23Z" fill="#A1D1FD"/>
<path class="p-65B3E7" d="M5.7666 6.89893C2.20483 9.4916 0 13.6728 0 18.23V24H14.692V6.89893H5.7666Z" fill="#B9DFFC"/>
<path class="p-FFF5F5" d="M11.0857 10.9285H10.9771C10.5016 10.9285 10.1162 11.3139 10.1162 11.7893C10.1162 12.2648 10.5016 12.6502 10.9771 12.6502H11.0857C11.5611 12.6502 11.9466 12.2648 11.9466 11.7893C11.9466 11.3139 11.5611 10.9285 11.0857 10.9285Z" fill="#65B3E7"/>
<path class="p-FFF5F5" d="M14.7468 10.9285H14.6382C14.1628 10.9285 13.7773 11.3139 13.7773 11.7893C13.7773 12.2648 14.1628 12.6502 14.6382 12.6502H14.7468C15.2223 12.6502 15.6077 12.2648 15.6077 11.7893C15.6077 11.3139 15.2223 10.9285 14.7468 10.9285Z" fill="#65B3E7"/>
<path class="p-E1D3CE" d="M18.407 10.9285H18.2984C17.8229 10.9285 17.4375 11.3139 17.4375 11.7893C17.4375 12.2648 17.8229 12.6502 18.2984 12.6502H18.407C18.8824 12.6502 19.2679 12.2648 19.2679 11.7893C19.2679 11.3139 18.8824 10.9285 18.407 10.9285Z" fill="#65B3E7"/>
<path class="p-FFF5F5" d="M11.0857 14.5891H10.9771C10.5016 14.5891 10.1162 14.9745 10.1162 15.45C10.1162 15.9254 10.5016 16.3108 10.9771 16.3108H11.0857C11.5611 16.3108 11.9466 15.9254 11.9466 15.45C11.9466 14.9745 11.5611 14.5891 11.0857 14.5891Z" fill="#65B3E7"/>
<path class="p-FFF5F5" d="M14.7468 14.5891H14.6382C14.1628 14.5891 13.7773 14.9745 13.7773 15.45C13.7773 15.9254 14.1628 16.3108 14.6382 16.3108H14.7468C15.2223 16.3108 15.6077 15.9254 15.6077 15.45C15.6077 14.9745 15.2223 14.5891 14.7468 14.5891Z" fill="#65B3E7"/>
<path class="p-E1D3CE" d="M18.407 14.5891H18.2984C17.8229 14.5891 17.4375 14.9745 17.4375 15.45C17.4375 15.9254 17.8229 16.3108 18.2984 16.3108H18.407C18.8824 16.3108 19.2679 15.9254 19.2679 15.45C19.2679 14.9745 18.8824 14.5891 18.407 14.5891Z" fill="#65B3E7"/>
<path class="p-FFF5F5" d="M11.0857 18.2495H10.9771C10.5016 18.2495 10.1162 18.6349 10.1162 19.1104C10.1162 19.5858 10.5016 19.9712 10.9771 19.9712H11.0857C11.5611 19.9712 11.9466 19.5858 11.9466 19.1104C11.9466 18.6349 11.5611 18.2495 11.0857 18.2495Z" fill="#65B3E7"/>
<path class="p-FFF5F5" d="M14.7468 18.2495H14.6382C14.1628 18.2495 13.7773 18.6349 13.7773 19.1104C13.7773 19.5858 14.1628 19.9712 14.6382 19.9712H14.7468C15.2223 19.9712 15.6077 19.5858 15.6077 19.1104C15.6077 18.6349 15.2223 18.2495 14.7468 18.2495Z" fill="#65B3E7"/>
<path class="p-E1D3CE" d="M18.407 18.2495H18.2984C17.8229 18.2495 17.4375 18.6349 17.4375 19.1104C17.4375 19.5858 17.8229 19.9712 18.2984 19.9712H18.407C18.8824 19.9712 19.2679 19.5858 19.2679 19.1104C19.2679 18.6349 18.8824 18.2495 18.407 18.2495Z" fill="#65B3E7"/>
<path class="p-00347B" d="M24.0701 0H14.6917L13.543 2.24299L14.6917 4.96147H20.1827V6.62212C20.1827 7.72669 21.0781 8.62212 22.1827 8.62212H25.5533C26.6579 8.62212 27.5533 7.72669 27.5533 6.62212V3.48315C27.5533 1.55947 25.9939 0 24.0701 0Z" fill="#65B3E7"/>
<path class="p-515BE0" d="M5.31426 0C3.39053 0 1.83105 1.55947 1.83105 3.4832V6.62218C1.83105 7.72675 2.72649 8.62218 3.83105 8.62218H7.20166C8.30623 8.62218 9.20166 7.72675 9.20166 6.62218V4.96153H14.6927V0H5.31426Z" fill="#A1D1FD"/>
</svg>

<svg width="30" height="24" fill="none" xmlns="http://www.w3.org/2000/svg"><path class="p-515BE0" d="M13.723 4.1H12v3.66h1.722V4.1z" fill="#65B3E7"/><path class="p-00347B" d="M17.383 4.1H15.66v3.66h1.722V4.1z" fill="#65B3E7"/><path class="p-515BE0" d="M29.384 18.23c0-4.557-2.205-8.738-5.767-11.331h-8.925l-1.149 8.56L14.692 24h14.692v-5.77z" fill="#A1D1FD"/><path class="p-65B3E7" d="M5.767 6.899A14.015 14.015 0 000 18.23V24h14.692V6.899H5.767z" fill="#B9DFFC"/><path class="p-FFF5F5" d="M11.086 10.928h-.109a.86.86 0 100 1.722h.109a.86.86 0 000-1.722zM14.747 10.928h-.109a.86.86 0 100 1.722h.109a.86.86 0 100-1.722z" fill="#65B3E7"/><path class="p-E1D3CE" d="M18.407 10.928h-.109a.86.86 0 100 1.722h.109a.86.86 0 000-1.722z" fill="#65B3E7"/><path class="p-FFF5F5" d="M11.086 14.59h-.109a.86.86 0 100 1.72h.109a.86.86 0 100-1.72zM14.747 14.59h-.109a.86.86 0 000 1.72h.109a.86.86 0 100-1.72z" fill="#65B3E7"/><path class="p-E1D3CE" d="M18.407 14.59h-.109a.86.86 0 100 1.72h.109a.86.86 0 100-1.72z" fill="#65B3E7"/><path class="p-FFF5F5" d="M11.086 18.25h-.109a.86.86 0 100 1.721h.109a.86.86 0 100-1.721zM14.747 18.25h-.109a.86.86 0 000 1.721h.109a.86.86 0 100-1.721z" fill="#65B3E7"/><path class="p-E1D3CE" d="M18.407 18.25h-.109a.86.86 0 100 1.721h.109a.86.86 0 100-1.721z" fill="#65B3E7"/><path class="p-00347B" d="M24.07 0h-9.378l-1.149 2.243 1.149 2.718h5.49v1.661a2 2 0 002 2h3.371a2 2 0 002-2V3.483A3.483 3.483 0 0024.07 0z" fill="#65B3E7"/><path class="p-515BE0" d="M5.314 0a3.483 3.483 0 00-3.483 3.483v3.14a2 2 0 002 2h3.37a2 2 0 002-2V4.961h5.492V0H5.314z" fill="#A1D1FD"/></svg>
